packages/assets/static/images/icons/carrot.svg

<svg width="24" height="24" viewBox="0 0 24 24" xmlns="http://www.w3.org/2000/svg" fill="currentColor" aria-hidden="true"> <path d="M21.3746 6.00049H19.5933L21.4224 4.17143C21.5271 4.06678 21.6101 3.94254 21.6667 3.80582C21.7233 3.66909 21.7525 3.52254 21.7525 3.37455C21.7525 3.22656 21.7233 3.08001 21.6667 2.94329C21.6101 2.80656 21.5271 2.68232 21.4224 2.57768C21.3178 2.47303 21.1935 2.39002 21.0568 2.33338C20.9201 2.27675 20.7735 2.2476 20.6255 2.2476C20.4775 2.2476 20.331 2.27675 20.1943 2.33338C20.0575 2.39002 19.9333 2.47303 19.8287 2.57768L17.9996 4.40674V2.62549C17.9996 2.32712 17.8811 2.04097 17.6701 1.82999C17.4591 1.61901 17.173 1.50049 16.8746 1.50049C16.5762 1.50049 16.2901 1.61901 16.0791 1.82999C15.8681 2.04097 15.7496 2.32712 15.7496 2.62549V5.06299C14.5703 4.53121 13.2571 4.3708 11.9845 4.60305C10.7119 4.83531 9.54003 5.44924 8.6246 6.3633C4.82304 10.0955 1.98522 18.8442 1.66647 19.8539C1.53757 20.1394 1.48225 20.4527 1.50557 20.7651C1.52889 21.0775 1.63012 21.3791 1.79999 21.6423C1.96987 21.9055 2.20298 22.1219 2.47804 22.2718C2.7531 22.4217 3.06134 22.5004 3.3746 22.5005C3.64099 22.5 3.90427 22.4432 4.1471 22.3336C4.86335 22.1067 9.47116 20.6142 13.4199 18.413L13.4705 18.3849C15.0737 17.4877 16.5643 16.4733 17.6368 15.3849C18.5528 14.4687 19.1679 13.2951 19.4002 12.0206C19.6325 10.746 19.471 9.43093 18.9371 8.25049H21.3746C21.673 8.25049 21.9591 8.13196 22.1701 7.92098C22.3811 7.71001 22.4996 7.42386 22.4996 7.12549C22.4996 6.82712 22.3811 6.54097 22.1701 6.32999C21.9591 6.11901 21.673 6.00049 21.3746 6.00049ZM16.0412 13.793L16.0327 13.8014C15.2724 14.5777 14.2412 15.3202 13.0955 16.0064L10.9196 13.8305C10.7083 13.6191 10.4216 13.5004 10.1227 13.5004C9.82384 13.5004 9.53719 13.6191 9.32585 13.8305C9.1145 14.0418 8.99577 14.3285 8.99577 14.6274C8.99577 14.9262 9.1145 15.2129 9.32585 15.4242L11.034 17.1324C8.19429 18.5546 5.20929 19.6092 3.97835 20.0217C4.61304 18.1261 6.77116 12.0717 9.44772 8.79611L12.3258 11.6742C12.5372 11.8856 12.8238 12.0043 13.1227 12.0043C13.4216 12.0043 13.7083 11.8856 13.9196 11.6742C14.1309 11.4629 14.2497 11.1762 14.2497 10.8774C14.2497 10.5785 14.1309 10.2918 13.9196 10.0805L11.1127 7.27361C11.9822 6.78699 12.9984 6.63153 13.9736 6.83594C14.9488 7.04035 15.817 7.59083 16.4179 8.38565C17.0187 9.18047 17.3116 10.1659 17.2423 11.1599C17.1731 12.1538 16.7464 13.0892 16.0412 13.793Z"/> </svg>

<svg viewBox="0 0 24 24" xmlns="http://www.w3.org/2000/svg" aria-hidden="true" fill="currentColor"><path d="M21.375 6h-1.782l1.83-1.829a1.126 1.126 0 1 0-1.594-1.593l-1.83 1.829V2.625a1.125 1.125 0 1 0-2.25 0v2.438a6.375 6.375 0 0 0-7.124 1.3c-3.802 3.732-6.64 12.481-6.959 13.49a1.875 1.875 0 0 0 2.481 2.48c.716-.226 5.324-1.719 9.273-3.92l.05-.028c1.604-.897 3.094-1.912 4.167-3a6.375 6.375 0 0 0 1.3-7.135h2.438a1.125 1.125 0 1 0 0-2.25m-5.334 7.793-.008.008c-.76.777-1.792 1.52-2.938 2.205l-2.175-2.175a1.127 1.127 0 1 0-1.594 1.593l1.708 1.708c-2.84 1.423-5.825 2.477-7.056 2.89.635-1.896 2.793-7.95 5.47-11.226l2.878 2.878a1.127 1.127 0 1 0 1.594-1.593l-2.807-2.807a4.125 4.125 0 0 1 4.928 6.519"/></svg>
